data/logos/thumbor.svg

<svg fill="none" height="25" viewBox="0 0 129 25" width="129" xmlns="http://www.w3.org/2000/svg" xmlns:xlink="http://www.w3.org/1999/xlink"><mask id="a" height="18" maskUnits="userSpaceOnUse" width="18" x="29" y="7"><path clip-rule="evenodd" d="m29 24.4528h17.856v-16.76872h-17.856z" fill="#fff" fill-rule="evenodd"/></mask><mask id="b" height="25" maskUnits="userSpaceOnUse" width="129" x="0" y="0"><path clip-rule="evenodd" d="m0 24.4529h129v-23.986591h-129z" fill="#fff" fill-rule="evenodd"/></mask><path d="m6.69067 3.46472v4.04773h2.80576v3.14825h-2.80576v8.4702c0 .6746.14388 1.1244.35971 1.3493.28777.2998.57554.4497 1.07914.4497.28777 0 .57554 0 .79137-.0749.21583 0 .5036-.075.71943-.15l.35968 3.2232c-.50357.15-1.00717.2999-1.43882.3748-.5036.075-1.0072.1499-1.58274.1499-1.5108 0-2.66188-.4497-3.45325-1.2742-.79137-.8246-1.22302-2.1738-1.22302-4.0478v-8.4702h-2.30217v-3.14825h2.37411v-4.04773z" fill="#000"/><path d="m11.2169 20.8674 2.0241-.431v-16.95302l-2.241-.43101v-2.586061h6.506v9.051201c.506-.71835 1.0844-1.29303 1.8073-1.72404.7228-.43101 1.518-.64651 2.3855-.64651 1.6626 0 2.9639.57468 3.9036 1.6522.9398 1.07753 1.3735 2.80154 1.3735 5.10024v6.4652l2.0241.431v2.6579h-8.0964v-2.5861l1.8072-.431v-6.4651c0-1.2212-.2168-2.0832-.6506-2.6579-.4337-.5029-1.0843-.7902-1.9518-.7902-.5783 0-1.0843.1437-1.518.3592-.4338.2155-.7952.5028-1.0844.9338v8.6202l1.8073.431v2.5861h-8.0964z" fill="#000"/><g mask="url(#a)"><path d="m40.736 22.0151c-.504.7387-1.152 1.3297-1.944 1.7729s-1.656.591-2.592.591c-1.728 0-3.024-.591-4.032-1.6991-.936-1.108-1.44-2.8071-1.44-5.171v-6.7222l-1.728-.4433v-2.65932h1.8 4.32v9.97262c0 1.1819.216 2.0684.576 2.5855s1.008.8126 1.728.8126 1.296-.1478 1.8-.3694.936-.591 1.224-.9603v-8.8646l-1.944-.4432v-2.73322h2.016 4.3199v13.37072l1.944.4432v2.6594h-5.7599z" fill="#000"/></g><g fill="#000"><path d="m47 9.49169v-2.73325h6.4672l.147 2.21615c.5144-.81259 1.1758-1.40356 1.9842-1.84679s1.7638-.66485 2.7927-.66485c1.0288 0 1.9842.22162 2.7191.73872.7349.44323 1.3228 1.18194 1.6903 2.14228.5144-.88646 1.1758-1.62518 1.9842-2.06841.8084-.5171 1.7638-.73872 2.8662-.73872 1.6168 0 2.8661.59098 3.8215 1.69905.9554 1.10808 1.3963 2.88103 1.3963 5.17103v6.9439l2.1312.4433v2.6593h-8.5249v-2.7332l1.9108-.4433v-6.9439c0-1.2558-.2205-2.1423-.5879-2.6594-.3675-.5171-1.0289-.73868-1.8373-.73868-.6614 0-1.1759.14778-1.6168.44318-.441.2955-.8084.6649-1.1024 1.182v.5171.4432 7.8304l1.7638.4433v2.6593h-7.937v-2.7332l1.7638-.4433v-6.9439c0-1.2558-.2205-2.0684-.5879-2.5855-.3675-.5171-1.0289-.7387-1.8373-.7387-.5879 0-1.1024.1477-1.5433.3693-.4409.2217-.8084.591-1.1024.9604v9.0123l1.9108.4433v2.6593h-8.4514v-2.7332l2.1312-.4433v-10.34198z"/><path clip-rule="evenodd" d="m90.3074 22.2723c1.1039-1.4537 1.619-3.4162 1.619-5.8876h.0736v-.2907c0-2.6894-.5152-4.7974-1.619-6.32379-1.1039-1.52642-2.6494-2.32597-4.71-2.32597-.8831 0-1.6191.14537-2.2814.50881-.6623.36343-1.2511.87224-1.6926 1.52642v-9.013161h-6.697v2.689411l2.355.43612v20.57036h3.7532l.2944-2.0352c.4416.7995 1.1039 1.3083 1.7662 1.7444.736.3635 1.5455.5815 2.5022.5815 1.987 0 3.5325-.7268 4.6364-2.1806zm-3.3853-9.9581c.4415.9449.6623 2.1806.6623 3.7797h.0736v.2908c0 1.4537-.2208 2.6167-.6623 3.4163-.4416.7996-1.2511 1.2357-2.355 1.2357-.7359 0-1.3247-.0727-1.7662-.3635-.4416-.2907-.8096-.6541-1.1039-1.163v-6.9053c.2943-.5088.6623-.9449 1.1039-1.2357.4415-.2907 1.0303-.4361 1.6926-.4361 1.1039 0 1.9134.4361 2.355 1.3811z" fill-rule="evenodd"/><path clip-rule="evenodd" d="m95.1091 9.69696c-1.3818 1.46644-2.1091 3.35184-2.1091 5.65624h.0727v.2793c0 2.3044.7273 4.1898 2.1091 5.6563 1.3818 1.4664 3.3455 2.1647 5.8912 2.1647 2.472 0 4.436-.6983 5.818-2.1647 1.382-1.4665 2.109-3.3519 2.109-5.6563v-.2793c0-2.3044-.727-4.1898-2.109-5.65624-1.455-1.46643-3.418-2.23456-5.891-2.23456-2.5455 0-4.5091.76813-5.8909 2.23456zm3.2728 9.35734c-.5091-.9078-.8-2.0251-.8-3.4217v-.2793c0-1.3966.2909-2.5139.8-3.3519.5818-.9078 1.4545-1.3268 2.6181-1.3268 1.164 0 2.036.4888 2.618 1.3268.509.838.8 1.9553.8 3.3519v.2793c0 1.4664-.218 2.5837-.8 3.4217-.582.8379-1.454 1.2569-2.618 1.2569-1.1636 0-2.109-.419-2.6181-1.2569z" fill-rule="evenodd"/><path d="m109.225 20.7202 2.175-.4433v-10.34198l-2.4-.44323v-2.73325h6.675l.225 2.43776c.375-.88646.9-1.5513 1.5-1.99453s1.35-.73872 2.175-.73872c.225 0 .525 0 .75.07387.3 0 .45.07387.675.14775l-.45 4.13683-1.875-.0739c-.675 0-1.2.1478-1.65.3694s-.75.5909-.975 1.108v8.1259l2.175.4433v2.6593h-8.925v-2.7332z"/></g><g mask="url(#b)"><path d="m122.441 23.7261h6.559v-4.3612h-6.559z" fill="#0067b0"/></g></svg>

<svg width="129" height="25" viewBox="0 0 129 25" fill="none" xmlns="http://www.w3.org/2000/svg">
<path d="M6.69067 3.46472V7.51245H9.49643V10.6607H6.69067V19.1309C6.69067 19.8055 6.83455 20.2553 7.05038 20.4802C7.33815 20.78 7.62592 20.9299 8.12952 20.9299C8.41729 20.9299 8.70506 20.9299 8.92089 20.855C9.13672 20.855 9.42449 20.78 9.64032 20.705L10 23.9282C9.49643 24.0782 8.99283 24.2281 8.56118 24.303C8.05758 24.378 7.55398 24.4529 6.97844 24.4529C5.46764 24.4529 4.31656 24.0032 3.52519 23.1787C2.73382 22.3541 2.30217 21.0049 2.30217 19.1309V10.6607H0V7.51245H2.37411V3.46472H6.69067Z" fill="black"/>
<path d="M11.2169 20.8674L13.241 20.4364V3.48338L11 3.05237V0.466309H17.506V9.51751C18.012 8.79916 18.5904 8.22448 19.3133 7.79347C20.0361 7.36246 20.8313 7.14696 21.6988 7.14696C23.3614 7.14696 24.6627 7.72164 25.6024 8.79916C26.5422 9.87669 26.9759 11.6007 26.9759 13.8994V20.3646L29 20.7956V23.4535H20.9036V20.8674L22.7108 20.4364V13.9713C22.7108 12.7501 22.494 11.8881 22.0602 11.3134C21.6265 10.8105 20.9759 10.5232 20.1084 10.5232C19.5301 10.5232 19.0241 10.6669 18.5904 10.8824C18.1566 11.0979 17.7952 11.3852 17.506 11.8162V20.4364L19.3133 20.8674V23.4535H11.2169V20.8674Z" fill="black"/>
<mask id="mask0" mask-type="alpha" maskUnits="userSpaceOnUse" x="29" y="7" width="18" height="18">
<path fill-rule="evenodd" clip-rule="evenodd" d="M29 24.4528H46.856V7.68408H29V24.4528Z" fill="white"/>
</mask>
<g mask="url(#mask0)">
<path d="M40.736 22.0151C40.232 22.7538 39.584 23.3448 38.792 23.788C38 24.2312 37.136 24.379 36.2 24.379C34.472 24.379 33.176 23.788 32.168 22.6799C31.232 21.5719 30.728 19.8728 30.728 17.5089V10.7867L29 10.3434V7.68408H30.8H35.12V17.6567C35.12 18.8386 35.336 19.7251 35.696 20.2422C36.056 20.7593 36.704 21.0548 37.424 21.0548C38.144 21.0548 38.72 20.907 39.224 20.6854C39.728 20.4638 40.16 20.0944 40.448 19.7251V10.8605L38.504 10.4173V7.68408H40.52H44.8399V21.0548L46.7839 21.498V24.1574H41.024L40.736 22.0151Z" fill="black"/>
</g>
<path d="M47 9.49169V6.75844H53.4672L53.6142 8.97459C54.1286 8.162 54.79 7.57103 55.5984 7.1278C56.4068 6.68457 57.3622 6.46295 58.3911 6.46295C59.4199 6.46295 60.3753 6.68457 61.1102 7.20167C61.8451 7.6449 62.433 8.38361 62.8005 9.34395C63.3149 8.45749 63.9763 7.71877 64.7847 7.27554C65.5931 6.75844 66.5485 6.53682 67.6509 6.53682C69.2677 6.53682 70.517 7.1278 71.4724 8.23587C72.4278 9.34395 72.8687 11.1169 72.8687 13.4069V20.3508L74.9999 20.7941V23.4534H66.475V20.7202L68.3858 20.2769V13.333C68.3858 12.0772 68.1653 11.1907 67.7979 10.6736C67.4304 10.1565 66.769 9.93492 65.9606 9.93492C65.2992 9.93492 64.7847 10.0827 64.3438 10.3781C63.9028 10.6736 63.5354 11.043 63.2414 11.5601C63.2414 11.7817 63.2414 11.9295 63.2414 12.0772C63.2414 12.2249 63.2414 12.3727 63.2414 12.5204V20.3508L65.0052 20.7941V23.4534H57.0682V20.7202L58.832 20.2769V13.333C58.832 12.0772 58.6115 11.2646 58.2441 10.7475C57.8766 10.2304 57.2152 10.0088 56.4068 10.0088C55.8189 10.0088 55.3044 10.1565 54.8635 10.3781C54.4226 10.5998 54.0551 10.9691 53.7611 11.3385V20.3508L55.6719 20.7941V23.4534H47.2205V20.7202L49.3517 20.2769V9.93492L47 9.49169Z" fill="black"/>
<path fill-rule="evenodd" clip-rule="evenodd" d="M90.3074 22.2723C91.4113 20.8186 91.9264 18.8561 91.9264 16.3847H92V16.094C92 13.4046 91.4848 11.2966 90.381 9.77021C89.2771 8.24379 87.7316 7.44424 85.671 7.44424C84.7879 7.44424 84.0519 7.58961 83.3896 7.95305C82.7273 8.31648 82.1385 8.82529 81.697 9.47947V0.466309H75V3.15572L77.355 3.59184V24.1622H81.1082L81.4026 22.127C81.8442 22.9265 82.5065 23.4353 83.1688 23.8714C83.9048 24.2349 84.7143 24.4529 85.671 24.4529C87.658 24.4529 89.2035 23.7261 90.3074 22.2723ZM86.9221 12.3142C87.3636 13.2591 87.5844 14.4948 87.5844 16.0939H87.658V16.3847C87.658 17.8384 87.4372 19.0014 86.9957 19.801C86.5541 20.6006 85.7446 21.0367 84.6407 21.0367C83.9048 21.0367 83.316 20.964 82.8745 20.6732C82.4329 20.3825 82.0649 20.0191 81.7706 19.5102V12.6049C82.0649 12.0961 82.4329 11.66 82.8745 11.3692C83.316 11.0785 83.9048 10.9331 84.5671 10.9331C85.671 10.9331 86.4805 11.3692 86.9221 12.3142Z" fill="black"/>
<path fill-rule="evenodd" clip-rule="evenodd" d="M95.1091 9.69696C93.7273 11.1634 93 13.0488 93 15.3532H93.0727V15.6325C93.0727 17.9369 93.8 19.8223 95.1818 21.2888C96.5636 22.7552 98.5273 23.4535 101.073 23.4535C103.545 23.4535 105.509 22.7552 106.891 21.2888C108.273 19.8223 109 17.9369 109 15.6325V15.3532C109 13.0488 108.273 11.1634 106.891 9.69696C105.436 8.23053 103.473 7.4624 101 7.4624C98.4545 7.4624 96.4909 8.23053 95.1091 9.69696ZM98.3819 19.0543C97.8728 18.1465 97.5819 17.0292 97.5819 15.6326V15.3533C97.5819 13.9567 97.8728 12.8394 98.3819 12.0014C98.9637 11.0936 99.8364 10.6746 101 10.6746C102.164 10.6746 103.036 11.1634 103.618 12.0014C104.127 12.8394 104.418 13.9567 104.418 15.3533V15.6326C104.418 17.099 104.2 18.2163 103.618 19.0543C103.036 19.8922 102.164 20.3112 101 20.3112C99.8364 20.3112 98.891 19.8922 98.3819 19.0543Z" fill="black"/>
<path d="M109.225 20.7202L111.4 20.2769V9.93492L109 9.49169V6.75844H115.675L115.9 9.1962C116.275 8.30974 116.8 7.6449 117.4 7.20167C118 6.75844 118.75 6.46295 119.575 6.46295C119.8 6.46295 120.1 6.46295 120.325 6.53682C120.625 6.53682 120.775 6.61069 121 6.68457L120.55 10.8214L118.675 10.7475C118 10.7475 117.475 10.8953 117.025 11.1169C116.575 11.3385 116.275 11.7078 116.05 12.2249V20.3508L118.225 20.7941V23.4534H109.3V20.7202H109.225Z" fill="black"/>
<mask id="mask1" mask-type="alpha" maskUnits="userSpaceOnUse" x="0" y="0" width="129" height="25">
<path fill-rule="evenodd" clip-rule="evenodd" d="M0 24.4529H129V0.466309H0V24.4529Z" fill="white"/>
</mask>
<g mask="url(#mask1)">
<path d="M122.441 23.7261H129V19.3649H122.441V23.7261Z" fill="#0067B0"/>
</g>
</svg>
